humanity-icon-theme/Humanity-Dark/status/16/weather-showers-scattered.svg

<?xml version="1.0" encoding="UTF-8" standalone="no"?>
<!-- Created with Inkscape (http://www.inkscape.org/) -->

<svg
   xmlns:svg="http://www.w3.org/2000/svg"
   xmlns="http://www.w3.org/2000/svg"
   version="1.1"
   width="16"
   height="16"
   id="svg2896">
  <defs
     id="defs2898" />
  <g
     transform="translate(-5.0000001,4.0000077)"
     id="layer1">
    <g
       transform="translate(-2,-5.0000002)"
       id="layer1-3">
      <path
         d="M 20.391055,5.2783427 A 1.1955726,1.1956467 0 0 0 18.871862,3.6057906"
         id="path2805-4-1"
         style="fill:none;stroke:#969696;stroke-width:0.99997246;stroke-linecap:round;stroke-miterlimit:4;stroke-opacity:1;stroke-dasharray:none;stroke-dashoffset:0;display:inline" />
      <path
         d="M 18.550682,3.6525167 A 3.0946431,3.0948347 0 0 0 12.499984,4.5950054"
         id="path2818-0-7"
         style="fill:none;stroke:#969696;stroke-width:0.99997246;stroke-linecap:round;stroke-miterlimit:4;stroke-opacity:1;stroke-dasharray:none;stroke-dashoffset:0;display:inline" />
      <path
         d="M 12.682649,5.5290141 A 2.3884832,2.388631 0 1 0 10.787811,9.4927302"
         id="path2820-3-5"
         style="fill:none;stroke:#969696;stroke-width:0.99997246;stroke-linecap:round;stroke-miterlimit:4;stroke-opacity:1;stroke-dasharray:none;stroke-dashoffset:0;display:inline" />
      <path
         d="M 20.327675,9.4800042 A 1.9881833,1.9883065 0 1 0 20.446493,5.5296611"
         id="path2822-7-7"
         style="fill:none;stroke:#969696;stroke-width:0.99997252;stroke-linecap:round;stroke-miterlimit:4;stroke-opacity:1;stroke-dasharray:none;stroke-dashoffset:0;display:inline" />
      <path
         d="m 11.008705,9.5000063 9.512443,0"
         id="path16154-1"
         style="color:#000000;fill:none;stroke:#969696;stroke-width:0.99997252;stroke-linecap:round;stroke-linejoin:miter;stroke-miterlimit:4;stroke-opacity:1;stroke-dasharray:none;stroke-dashoffset:0;marker:none;visibility:visible;display:inline;overflow:visible;enable-background:accumulate" />
      <path
         d="M 16,15.999992 20,9.9999925 M 12,15.999992 16,9.9999925 M 8.0000001,15.999992 12,9.9999925"
         id="path3721"
         style="color:#000000;fill:none;stroke:#969696;stroke-width:1;stroke-linecap:round;stroke-linejoin:miter;stroke-miterlimit:4;stroke-opacity:1;stroke-dasharray:1, 3;stroke-dashoffset:0;marker:none;visibility:visible;display:inline;overflow:visible;enable-background:accumulate" />
    </g>
  </g>
</svg>

<?xml version="1.0" encoding="UTF-8" standalone="no"?>
<!-- Created with Inkscape (http://www.inkscape.org/) -->
<svg id="svg2896" xmlns="http://www.w3.org/2000/svg" height="16" width="16" version="1.1">
 <g id="layer1" transform="translate(-5 4)">
  <g id="layer1-3" transform="translate(-2 -5)">
   <path id="path2805-4-1" style="stroke:#969696;stroke-linecap:round;stroke-width:.99997;fill:none" d="m20.391 5.2783a1.1956 1.1956 0 0 0 -1.519 -1.6725"/>
   <path id="path2818-0-7" style="stroke:#969696;stroke-linecap:round;stroke-width:.99997;fill:none" d="m18.551 3.6525a3.0946 3.0948 0 0 0 -6.051 0.9425"/>
   <path id="path2820-3-5" style="stroke:#969696;stroke-linecap:round;stroke-width:.99997;fill:none" d="m12.683 5.529a2.3885 2.3886 0 1 0 -1.895 3.9637"/>
   <path id="path2822-7-7" style="stroke:#969696;stroke-linecap:round;stroke-width:.99997;fill:none" d="m20.328 9.48a1.9882 1.9883 0 1 0 0.118 -3.9503"/>
   <path id="path16154-1" style="stroke-width:.99997;color:#000000;stroke:#969696;stroke-linecap:round;fill:none" d="m11.009 9.5h9.5124"/>
   <path id="path3721" style="color:#000000;stroke:#969696;stroke-linecap:round;stroke-dasharray:1, 3;fill:none" d="m16 16 4-6m-8 6 4-6m-8 6 4-6"/>
  </g>
 </g>
</svg>
